X: 1
T: Bagl\aens Kontraseyre #1
O: Denmark
M: 2/4
L: 1/16
K: D
A,2 \
| "D"D2DD D2DD | D2F2 A2F2 | "A7"E2EE E2EE | E2G2 B2G2 \
| "D"A2AA A2AA | A2d2 e2f2 | "A7"g4 f4 | "fine"e6 :|
|: a2 \
| "D"a2f2 d2f2 | "A7"g2e2 A3f | g2e2 c2e2 | "D"fdAF D4 \
| "D"D2DD D2F2 | A2AA A2f2 | "A7"g2e2 c2e2 | "D"d6 :|[K:=c]
K: G
|: d2 \
| "G"d3B B2B2 | B4 A2B2 | "D7"c2B2 A2G2 | F2E2 D2d2 \
| "G"d3B B2B2 | B4 A2B2 | "D7"c2A2 F2A2 | "G"G6 :|
|: G2 \
| "D7"F2G2 A2B2 | c4 A2F2 | "G"G2A2 B2c2 | d4 B2G2 \
| "D7"F2G2 A2B2 | c4 A2F2 | "G"G2B2 "D7"A2F2 | "G"G6 :|


